src/Resource_Files/fluent/heading-all.svg

<svg clip-rule="evenodd" fill-rule="evenodd" stroke-linejoin="round" stroke-miterlimit="2" viewBox="0 0 16 16" xmlns="http://www.w3.org/2000/svg"><g fill="#1abc9c"><path d="m15 5.5c0-.276-.336-.5-.75-.5h-4.5c-.414 0-.75.224-.75.5s.336.5.75.5h4.5c.414 0 .75-.224.75-.5z" transform="matrix(-.634038 .206011 -.309017 -.951057 22.7102 7.14064)"/><path d="m2.189 6.678c.093-.082.193-.161.3-.238.397-.283.901-.431 1.514-.431.435 0 .844.083 1.226.248.381.164.714.39 1.001.677.287.286.515.622.684 1.007.171.388.257.8.257 1.236v4.442c0 .205-.077.353-.202.456-.116.095-.248.142-.396.142-.131 0-.259-.044-.38-.142-.125-.103-.201-.251-.201-.456v-4.442c0-.245-.051-.488-.151-.729-.101-.243-.24-.456-.419-.64-.181-.185-.393-.336-.634-.452-.232-.112-.478-.168-.737-.168-.235 0-.463.046-.684.136s-.418.219-.59.387c-.174.169-.315.378-.425.625-.11.248-.163.529-.163.841v4.442c0 .152-.052.289-.161.408-.112.124-.257.19-.437.19-.188 0-.333-.072-.439-.202-.095-.116-.142-.248-.142-.396v-11.629c0-.19.064-.327.159-.423.095-.095.232-.158.422-.158.172 0 .308.055.415.151.116.104.183.245.183.43z" fill-rule="nonzero" transform="matrix(1 0 0 .920965 0 1.12362)"/><path d="m15 5.5c0-.276-.336-.5-.75-.5h-4.5c-.414 0-.75.224-.75.5s.336.5.75.5h4.5c.414 0 .75-.224.75-.5z" transform="matrix(-.391857 -.539345 .809017 -.587785 12.9283 16.323)"/><path d="m15 5.5c0-.276-.336-.5-.75-.5h-4.5c-.414 0-.75.224-.75.5s.336.5.75.5h4.5c.414 0 .75-.224.75-.5z" transform="matrix(.391857 -.539345 .809017 .587785 1.17255 9.85735)"/><path d="m15 5.5c0-.276-.336-.5-.75-.5h-4.5c-.414 0-.75.224-.75.5s.336.5.75.5h4.5c.414 0 .75-.224.75-.5z" transform="matrix(0 .666667 -1 0 17 -5)"/><path d="m15 5.5c0-.276-.336-.5-.75-.5h-4.5c-.414 0-.75.224-.75.5s.336.5.75.5h4.5c.414 0 .75-.224.75-.5z" transform="matrix(.634038 .206011 -.309017 .951057 3.68903 -3.32098)"/></g></svg>

<?xml version="1.0" encoding="UTF-8" standalone="no"?>
<!DOCTYPE svg PUBLIC "-//W3C//DTD SVG 1.1//EN" "http://www.w3.org/Graphics/SVG/1.1/DTD/svg11.dtd">
<svg width="100%" height="100%" viewBox="0 0 16 16" version="1.1" xmlns="http://www.w3.org/2000/svg" xmlns:xlink="http://www.w3.org/1999/xlink" xml:space="preserve" xmlns:serif="http://www.serif.com/" style="fill-rule:evenodd;clip-rule:evenodd;stroke-linejoin:round;stroke-miterlimit:2;">
    <g transform="matrix(-0.634038,0.206011,-0.309017,-0.951057,22.7102,7.14064)">
        <path d="M15,5.5C15,5.224 14.664,5 14.25,5L9.75,5C9.336,5 9,5.224 9,5.5C9,5.776 9.336,6 9.75,6L14.25,6C14.664,6 15,5.776 15,5.5Z" style="fill:rgb(26,188,156);"/>
    </g>
    <g transform="matrix(1,0,0,0.920965,0,1.12362)">
        <path d="M2.189,6.678C2.282,6.596 2.382,6.517 2.489,6.44C2.886,6.157 3.39,6.009 4.003,6.009C4.438,6.009 4.847,6.092 5.229,6.257C5.61,6.421 5.943,6.647 6.23,6.934C6.517,7.22 6.745,7.556 6.914,7.941C7.085,8.329 7.171,8.741 7.171,9.177C7.171,9.177 7.171,13.619 7.171,13.619C7.171,13.824 7.094,13.972 6.969,14.075C6.853,14.17 6.721,14.217 6.573,14.217C6.442,14.217 6.314,14.173 6.193,14.075C6.068,13.972 5.992,13.824 5.992,13.619L5.992,9.177C5.992,8.932 5.941,8.689 5.841,8.448C5.74,8.205 5.601,7.992 5.422,7.808C5.241,7.623 5.029,7.472 4.788,7.356C4.556,7.244 4.31,7.188 4.051,7.188C3.816,7.188 3.588,7.234 3.367,7.324C3.146,7.414 2.949,7.543 2.777,7.711C2.603,7.88 2.462,8.089 2.352,8.336C2.242,8.584 2.189,8.865 2.189,9.177L2.189,13.619C2.189,13.771 2.137,13.908 2.028,14.027C1.916,14.151 1.771,14.217 1.591,14.217C1.403,14.217 1.258,14.145 1.152,14.015C1.057,13.899 1.01,13.767 1.01,13.619L1.01,1.99C1.01,1.8 1.074,1.663 1.169,1.567C1.264,1.472 1.401,1.409 1.591,1.409C1.763,1.409 1.899,1.464 2.006,1.56C2.122,1.664 2.189,1.805 2.189,1.99L2.189,6.678Z" style="fill:rgb(26,188,156);fill-rule:nonzero;"/>
    </g>
    <g transform="matrix(-0.391857,-0.539345,0.809017,-0.587785,12.9283,16.323)">
        <path d="M15,5.5C15,5.224 14.664,5 14.25,5L9.75,5C9.336,5 9,5.224 9,5.5C9,5.776 9.336,6 9.75,6L14.25,6C14.664,6 15,5.776 15,5.5Z" style="fill:rgb(26,188,156);"/>
    </g>
    <g transform="matrix(0.391857,-0.539345,0.809017,0.587785,1.17255,9.85735)">
        <path d="M15,5.5C15,5.224 14.664,5 14.25,5L9.75,5C9.336,5 9,5.224 9,5.5C9,5.776 9.336,6 9.75,6L14.25,6C14.664,6 15,5.776 15,5.5Z" style="fill:rgb(26,188,156);"/>
    </g>
    <g transform="matrix(8.9684e-18,0.666667,-1,-1.03909e-16,17,-5)">
        <path d="M15,5.5C15,5.224 14.664,5 14.25,5L9.75,5C9.336,5 9,5.224 9,5.5C9,5.776 9.336,6 9.75,6L14.25,6C14.664,6 15,5.776 15,5.5Z" style="fill:rgb(26,188,156);"/>
    </g>
    <g transform="matrix(0.634038,0.206011,-0.309017,0.951057,3.68903,-3.32098)">
        <path d="M15,5.5C15,5.224 14.664,5 14.25,5L9.75,5C9.336,5 9,5.224 9,5.5C9,5.776 9.336,6 9.75,6L14.25,6C14.664,6 15,5.776 15,5.5Z" style="fill:rgb(26,188,156);"/>
    </g>
</svg>
